seeds/icons/target.svg

<svg id="Line" height="1.5rem" viewBox="0 0 64 64" width="1.5rem" xmlns="http://www.w3.org/2000/svg"><g><path d="m32 23.232c-4.819 0-8.739 3.934-8.739 8.768 0 4.818 3.92 8.738 8.739 8.738 4.834 0 8.767-3.92 8.767-8.738 0-4.834-3.933-8.768-8.767-8.768zm0 15.506c-3.716 0-6.739-3.022-6.739-6.738 0-3.731 3.023-6.768 6.739-6.768 3.731 0 6.767 3.036 6.767 6.768 0 3.716-3.036 6.738-6.767 6.738z"/><path d="m59.156 31h-3.816c-.512-12.089-10.251-21.828-22.34-22.34v-3.816c0-.553-.448-1-1-1s-1 .447-1 1v3.816c-12.089.512-21.828 10.251-22.34 22.34h-3.816c-.552 0-1 .447-1 1s.448 1 1 1h3.816c.512 12.089 10.251 21.828 22.34 22.34v3.816c0 .553.448 1 1 1s1-.447 1-1v-3.816c12.089-.512 21.828-10.251 22.34-22.34h3.816c.553 0 1-.447 1-1s-.447-1-1-1zm-26.156 22.314v-3.74c0-.553-.448-1-1-1s-1 .447-1 1v3.74c-10.981-.511-19.803-9.333-20.314-20.314h3.739c.552 0 1-.447 1-1s-.448-1-1-1h-3.739c.511-10.981 9.333-19.803 20.314-20.314v3.711c0 .553.448 1 1 1s1-.447 1-1v-3.711c10.981.511 19.803 9.333 20.314 20.314h-3.711c-.553 0-1 .447-1 1s.447 1 1 1h3.711c-.511 10.981-9.333 19.803-20.314 20.314z"/></g></svg>

<svg xmlns="http://www.w3.org/2000/svg" width="1.5rem" height="1.5rem" viewBox="0 0 64 64"><path d="M32 23.232c-4.819 0-8.739 3.934-8.739 8.768 0 4.818 3.92 8.738 8.739 8.738 4.834 0 8.767-3.92 8.767-8.738 0-4.834-3.933-8.768-8.767-8.768m0 15.506A6.746 6.746 0 0 1 25.261 32c0-3.731 3.023-6.768 6.739-6.768A6.775 6.775 0 0 1 38.767 32c0 3.716-3.036 6.738-6.767 6.738"/><path d="M59.156 31H55.34C54.828 18.911 45.089 9.172 33 8.66V4.844a1 1 0 1 0-2 0V8.66C18.911 9.172 9.172 18.911 8.66 31H4.844a1 1 0 1 0 0 2H8.66C9.172 45.089 18.911 54.828 31 55.34v3.816a1 1 0 1 0 2 0V55.34C45.089 54.828 54.828 45.089 55.34 33h3.816a1 1 0 1 0 0-2M33 53.314v-3.74a1 1 0 1 0-2 0v3.74C20.019 52.803 11.197 43.981 10.686 33h3.739a1 1 0 1 0 0-2h-3.739C11.197 20.019 20.019 11.197 31 10.686v3.711a1 1 0 1 0 2 0v-3.711c10.981.511 19.803 9.333 20.314 20.314h-3.711a1 1 0 1 0 0 2h3.711C52.803 43.981 43.981 52.803 33 53.314"/></svg>
